X: 235
T: Orly Benson's Stockyards
B: australian dance tunes
M:6/8
L:1/8
Q: 3/8=100
K:D
V:1 
A3|:f2 e d2 c|Bcd A2 F|GFG E2 G|F2 G A3|!
B2 c dcB|ABA d2 d|cde B2 c|1d3:|2d3- dAd||!
f3- fAd|f3- f2 A|d2 f a2 f|e3- e2 A|!
e3- e2 A|e3- e2 A|efe dcB|A3- A2 d|!
f3- fAd|f3- f2 A|d2 f a2 f|e3- eBc|!
d3 cBA|B2c d2 e|faf eBc|d3||
% abcbook-tune_id 62a078507c2669b7eacf2700


% abcbook-boost 0
% abcbook-tablature 
% abcbook-transpose 
% abcbook-lastupdated 1654683750451
% abcbook-soundfonts 
% abcbook-repeats 1


